X: 4
T: The Trip To Durrow
R: reel
M: 4/4
L: 1/8
K: Dmaj
|:D3F ADFA|dfed B3c|dBBA dBBA|FADE FE E2|
D3F ADFA|dfed B3c|dBBA FAdB|AFEG FD D2:||
|:d3e fefg|afdf gfed|(3Bcd ef gebe|gebe gfef|
dcde fefg|afdf gfed|(3Bcd ef gbag|fdec d2de|
fdec d2de|fded B3c|dBBA dBBA|FADE FE E2|
D3F ADFA|dfed B3c|dBBA FAdB|AFEG FD D2||


Tune 891	Setting 14077

